client/resources/iconsets/breeze/src/svg/large/icon_large_calendar_view_month.svg

<svg xmlns="http://www.w3.org/2000/svg" width="32" height="32" viewBox="0 0 32 32">
 <path style="fill:#6d6d70"
       d="M 7.5 4 C 7.223 4 7 4.223 7 4.5 L 7 5 L 5 5 L 4 5 C 3.4459997 5 3 5.446 3 6 L 3 28 C 3 28.554 3.4459997 29 4 29 L 28 29 C 28.554 29 29 28.554 29 28 L 29 6 C 29 5.446 28.553999 5 28 5 L 27 5 L 25 5 L 25 4.5 C 25 4.223 24.777 4 24.5 4 L 21.5 4 C 21.223 4 21 4.223 21 4.5 L 21 5 L 11 5 L 11 4.5 C 11 4.223 10.777 4 10.5 4 L 7.5 4 z M 5 8 L 27 8 L 27 26.730469 L 5 26.730469 L 5 8 z M 10.787109 11 C 9.327294 11 8.0696435 11.415754 7.015625 12.246094 L 8.1464844 14.087891 C 8.6260626 13.747682 9.061185 13.507531 9.4511719 13.369141 C 9.8464287 13.230751 10.233835 13.162109 10.613281 13.162109 C 11.70946 13.162109 12.257812 13.64046 12.257812 14.597656 C 12.257812 15.220411 12.049149 15.662394 11.632812 15.921875 C 11.221745 16.17559 10.56779 16.302734 9.671875 16.302734 L 8.7792969 16.302734 L 8.7792969 18.351562 L 9.65625 18.351562 C 10.625947 18.351562 11.332703 18.47666 11.775391 18.724609 C 12.218078 18.972558 12.439453 19.392405 12.439453 19.986328 C 12.439453 20.649445 12.246044 21.131796 11.861328 21.431641 C 11.476611 21.731486 10.880543 21.880859 10.074219 21.880859 C 9.5472093 21.880859 9.016065 21.802173 8.4785156 21.646484 C 7.9409663 21.490796 7.4479578 21.288964 7 21.041016 L 7 23.316406 C 7.9696969 23.77194 9.0816558 24 10.335938 24 C 11.832644 24 12.984692 23.662932 13.791016 22.988281 C 14.59734 22.307865 15 21.359256 15 20.142578 C 15 19.306473 14.760828 18.642475 14.28125 18.152344 C 13.801671 17.656447 13.094916 17.345608 12.162109 17.21875 L 12.162109 17.167969 C 12.952623 16.960384 13.566488 16.57895 14.003906 16.025391 C 14.441324 15.471831 14.660156 14.799741 14.660156 14.009766 C 14.660156 13.064101 14.31284 12.325417 13.617188 11.794922 C 12.926806 11.264427 11.983421 11 10.787109 11 z M 20.992188 11 C 19.635372 11 18.630832 11.530264 17.978516 12.589844 C 17.3262 13.643664 17 15.285101 17 17.513672 C 17 19.650106 17.333982 21.265244 18.001953 22.359375 C 18.675143 23.453506 19.671901 24 20.992188 24 C 22.354223 24 23.361356 23.469736 24.013672 22.410156 C 24.671206 21.350577 25 19.719209 25 17.513672 C 25 15.382997 24.660831 13.763851 23.982422 12.658203 C 23.309233 11.552556 22.312476 11 20.992188 11 z M 20.992188 13.160156 C 21.55057 13.160156 21.954589 13.500175 22.205078 14.179688 C 22.460786 14.853442 22.589844 15.964613 22.589844 17.513672 C 22.589844 19.045455 22.463379 20.150566 22.212891 20.830078 C 21.962401 21.509591 21.555788 21.849609 20.992188 21.849609 C 20.41815 21.849609 20.008943 21.515652 19.763672 20.847656 C 19.523619 20.173902 19.402344 19.062731 19.402344 17.513672 C 19.402344 15.964613 19.526214 14.853442 19.771484 14.179688 C 20.016755 13.500175 20.423368 13.160156 20.992188 13.160156 z "
       />
</svg>

<svg xmlns="http://www.w3.org/2000/svg" width="32" height="32"><path d="M7.5 4a.5.5 0 0 0-.5.5V5H5 4a1 1 0 0 0-1 1v22a1 1 0 0 0 1 1h24a1 1 0 0 0 1-1V6a1 1 0 0 0-1-1h-1-2v-.5a.5.5 0 0 0-.5-.5h-3a.5.5 0 0 0-.5.5V5H11v-.5a.5.5 0 0 0-.5-.5h-3zM5 8h22v18.73H5V8zm5.787 3c-1.46 0-2.717.416-3.771 1.246l1.131 1.842c.48-.34.915-.58 1.305-.719.395-.138.783-.207 1.162-.207 1.096 0 1.645.478 1.645 1.436 0 .623-.209 1.065-.625 1.324-.411.254-1.065.381-1.961.381h-.893v2.049h.877c.97 0 1.676.125 2.119.373s.664.668.664 1.262c0 .663-.193 1.145-.578 1.445s-.981.449-1.787.449c-.527 0-1.058-.079-1.596-.234A7.15 7.15 0 0 1 7 21.041v2.275c.97.456 2.082.684 3.336.684 1.497 0 2.649-.337 3.455-1.012.806-.68 1.209-1.629 1.209-2.846 0-.836-.239-1.5-.719-1.99-.48-.496-1.186-.807-2.119-.934v-.051c.791-.208 1.404-.589 1.842-1.143s.656-1.226.656-2.016c0-.946-.347-1.684-1.043-2.215-.69-.53-1.634-.795-2.83-.795zm10.205 0c-1.357 0-2.361.53-3.014 1.59-.652 1.054-.979 2.695-.979 4.924 0 2.136.334 3.752 1.002 4.846.673 1.094 1.67 1.641 2.99 1.641 1.362 0 2.369-.53 3.021-1.59.658-1.06.986-2.691.986-4.896 0-2.131-.339-3.75-1.018-4.855-.673-1.106-1.67-1.658-2.99-1.658zm0 2.16c.558 0 .962.34 1.213 1.02.256.674.385 1.785.385 3.334 0 1.532-.126 2.637-.377 3.316s-.657 1.02-1.221 1.02c-.574 0-.983-.334-1.229-1.002-.24-.674-.361-1.785-.361-3.334s.124-2.66.369-3.334c.245-.68.652-1.02 1.221-1.02z" fill="#6d6d70"/></svg>
